X: 21000
T: Julia Delaney's
R: reel
M: 4/4
K: Dminor
|:A|dcAG FDDF|ECCE FDDA|dcAG FDDA|Add^c defe|
dcAG FDDF|ECCE FDDA|dcAG FDDA|1 Add^c d3:|2 Add^c d2de||
|:f2fe fagf|ecgc acgc|fede fagf|edcB Adde|
f2fe fagf|ecgc acgc|fedf edcB|1 Add^c d2de:|2 Add^c d3||

